!!!OTL: 617. Der vergnuegte Schreiner.
!!!ODT: 1891
!!!ARE: Europa, Mitteleuropa, Deutschland, Wetzlar, Schwalbach
!!!SCT: B0617
!!!TXL: @@DE
!!!YEM: Copyright 1995, estate of Helmut Schaffrath.
**kern	**text
*ICvox	*
*Ivox	*
*clefG2	*
*M4/4	*
*met(c)	*
*k[]	*
*C:	*
!LO:TX:a:t=Heiter.	!
{8eL	Jch
8fJ	.
=1	=1
4.g	bin
8g	ein
4g	Schreiner,
4cc	.
=2	=2
4.g	hob-
8g	-le
4g}	glatt,
{4g	ich
=3	=3
4.f	hob-
8e	-le
4f	hin
4g	und
=4	=4
2e	her;
4r}	.
{4cc	ich
=5	=5
4.cc	hob-
8b	-le
4a	rund
4b	und
=6	=6
4.cc	hob-
8b	-le
4a}	glatt,
{4cc	als
=7	=7
4.dd	ob's
8cc	ge-
4b	-glät-
4a	-tet
=8	=8
2g	wär'.
4r}	.
{4g	Jch
=9	=9
4g	ſchnei-
4b	-de,
4dd	ſtem-
4cc	-me,
=10	=10
4b	boh-
4a	-re
4g}	ſo,
{4g	daß
=11	=11
4.f	al-
8e	-les
4f	wohl
4g	ſich
=12	=12
2e	fügt;
4r}	.
{4cc	drum
=13	=13
4.cc	bin
8b	ich
4a	im-
4b	-mer
=14	=14
4cc	le-
4b	-bens-
4a}	-froh
{4cc	und
=15	=15
4.dd	ſin-
8cc	-ge
4b	ganʒ
4a	ver-
=16	=16
2g	-gnügt:
4r}	.
{4g	Hei-
=17	=17
2.ee	-di,
4cc	hei-
=18	=18
2.g	-da,
4g	ʒum
=19	=19
4.f	tra-
8e	-la-
4f	-tra-
4g	-la-
=20	=20
(<4e	-la.
4g	.
4cc)}	.
{4dd	Hei-
=21	=21
2.ee	-di,
4cc	hei-
=22	=22
2.g	-da,
4g	ʒum
=23	=23
4.f	tra-
8e	-la-
4f	-tra-
4g	-la-
=24	=24
2e	-la.
4r}	.
==	==
!!!AGN: Staende -, Handwerker - Lied, Schreiner
!!!GTL: Seemanns-, Bergmanns-, Bauern- und Handwerkerlieder
!!!ONB: ESAC (Essen Associative Code) Database: BOEHME
!!!AMT: simple quadruple
!!!AIN: vox
!!!EED: Helmut Schaffrath
!!!EEV: 1.0
!!!RDF**kern: < = below
!!Aus Schwalbach (Kr. Wetzalar). 1891.
!!@@COMMENT:"Aus K. Becker's Niederschriften. 1894."
!!@@END:
!!!URL-scan: https://archive.org/details/BoehmeVtLieder1895/page/n487/mode/2up
!!!ENC: Anna Maria Matuszewska
!!!EEV: 2024/15/07
*-	*-
